64x64/apps/com.interversehq.qView.svg

<svg xmlns="http://www.w3.org/2000/svg" width="64" height="64" version="1">
 <path style="opacity:0.2" d="M 32,5 C 16.488,5 4,17.488 4,33 4,48.512 16.488,61 32,61 47.512,61 60,48.512 60,33 60,17.488 47.512,5 32,5 Z"/>
 <path style="fill:#17191e" d="M 32,4 C 16.488,4 4,16.488 4,32 4,47.512 16.488,60 32,60 47.512,60 60,47.512 60,32 60,16.488 47.512,4 32,4 Z"/>
 <path style="opacity:0.2;isolation:isolate" d="M 41.5,16 A 3.5000001,3.5000001 0 0 0 38,19.5 3.5000001,3.5000001 0 0 0 41.5,23 3.5000001,3.5000001 0 0 0 45,19.5 3.5000001,3.5000001 0 0 0 41.5,16 Z m -15.689453,9 c -0.328438,0.0091 -0.649685,0.137265 -0.875,0.390625 L 13.298828,37.556641 C 13.149088,37.773905 13,38.062104 13,38.351562 v 4.417969 C 13,43.493513 13.523869,44 14.275391,44 H 49.722656 C 50.398602,44 51,43.421327 51,42.769531 v -3.185547 c 0.0023,-0.327266 -0.135262,-0.641302 -0.378906,-0.86914 l -8.484375,-9.22461 c -0.525499,-0.434528 -1.277233,-0.506722 -1.802735,0 l -3.30664,3.865235 c -0.516397,0.434402 -1.284385,0.434402 -1.800782,0 l -8.488281,-8.03711 C 26.475529,25.1011 26.138985,24.990975 25.810547,25 Z"/>
 <path style="isolation:isolate;fill:#f4f4f7" d="M 41.5 15 A 3.5000001 3.5000001 0 0 0 38 18.5 A 3.5000001 3.5000001 0 0 0 41.5 22 A 3.5000001 3.5000001 0 0 0 45 18.5 A 3.5000001 3.5000001 0 0 0 41.5 15 z M 25.810547 24 C 25.482109 24.0091 25.160862 24.137265 24.935547 24.390625 L 13.298828 36.556641 C 13.149088 36.773905 13 37.062104 13 37.351562 L 13 41.769531 C 13 42.493513 13.523869 43 14.275391 43 L 49.722656 43 C 50.398602 43 51 42.421327 51 41.769531 L 51 38.583984 C 51.0023 38.256718 50.864738 37.942682 50.621094 37.714844 L 42.136719 28.490234 C 41.61122 28.055706 40.859486 27.983512 40.333984 28.490234 L 37.027344 32.355469 C 36.510947 32.789871 35.742959 32.789871 35.226562 32.355469 L 26.738281 24.318359 C 26.475529 24.1011 26.138985 23.990975 25.810547 24 z"/>
 <path style="fill:#f4f4f7;opacity:0.1" d="M 32 4 C 16.488 4 4 16.488 4 32 C 4 32.167704 4.0107645 32.333014 4.0136719 32.5 C 4.2796807 17.221478 16.655704 5 32 5 C 47.344296 5 59.720319 17.221478 59.986328 32.5 C 59.989235 32.333014 60 32.167704 60 32 C 60 16.488 47.512 4 32 4 z"/>
</svg>

<svg xmlns="http://www.w3.org/2000/svg" width="64" height="64" version="1"><path style="opacity:.2" d="M32 5C16.488 5 4 17.488 4 33s12.488 28 28 28 28-12.488 28-28S47.512 5 32 5z"/><path style="fill:#17191e" d="M32 4C16.488 4 4 16.488 4 32s12.488 28 28 28 28-12.488 28-28S47.512 4 32 4z"/><path style="opacity:.2;isolation:isolate" d="M41.5 16a3.5 3.5 0 0 0-3.5 3.5 3.5 3.5 0 0 0 3.5 3.5 3.5 3.5 0 0 0 3.5-3.5 3.5 3.5 0 0 0-3.5-3.5zm-15.69 9c-.328.01-.65.137-.874.39L13.299 37.558c-.15.217-.299.505-.299.795v4.418c0 .724.524 1.23 1.275 1.23h35.448c.676 0 1.277-.579 1.277-1.23v-3.186a1.18 1.18 0 0 0-.379-.87l-8.484-9.224c-.526-.434-1.278-.506-1.803 0l-3.307 3.865a1.407 1.407 0 0 1-1.8 0l-8.489-8.037a1.407 1.407 0 0 0-.927-.318z"/><path style="isolation:isolate;fill:#f4f4f7" d="M41.5 15a3.5 3.5 0 0 0-3.5 3.5 3.5 3.5 0 0 0 3.5 3.5 3.5 3.5 0 0 0 3.5-3.5 3.5 3.5 0 0 0-3.5-3.5zm-15.69 9c-.328.01-.65.137-.874.39L13.299 36.558c-.15.217-.299.505-.299.795v4.418c0 .724.524 1.23 1.275 1.23h35.448c.676 0 1.277-.579 1.277-1.23v-3.186a1.18 1.18 0 0 0-.379-.87l-8.484-9.224c-.526-.434-1.278-.506-1.803 0l-3.307 3.865a1.407 1.407 0 0 1-1.8 0l-8.489-8.037a1.407 1.407 0 0 0-.927-.318z"/><path style="fill:#f4f4f7;opacity:.1" d="M32 4C16.488 4 4 16.488 4 32c0 .168.01.333.014.5C4.28 17.221 16.656 5 32 5c15.344 0 27.72 12.221 27.986 27.5.003-.167.014-.332.014-.5C60 16.488 47.512 4 32 4z"/></svg>
